src/assets/icons/shapes,fancy,outline-triangle.svg

<svg width="48" height="48" viewBox="0 0 48 48" fill="none" xmlns="http://www.w3.org/2000/svg">
<path d="M27.8202 11.5018L41.8726 35.1622C43.0346 37.1187 43.8127 38.437 44.2211 39.4421C44.6241 40.4336 44.4893 40.6962 44.4276 40.8001C44.3565 40.9197 44.1593 41.1767 43.0545 41.3361C41.9453 41.4962 40.3727 41.5 38.0523 41.5H9.94768C7.6273 41.5 6.05473 41.4962 4.94554 41.3361C3.84066 41.1767 3.64351 40.9197 3.57245 40.8001C3.51075 40.6962 3.37593 40.4336 3.77886 39.4421C4.1873 38.437 4.96543 37.1187 6.12742 35.1622L20.1797 11.5018C21.3413 9.54611 22.1272 8.23081 22.8198 7.38275C23.4986 6.55142 23.8247 6.5 24 6.5C24.1753 6.5 24.5014 6.55142 25.1802 7.38274C25.8728 8.23081 26.6587 9.54611 27.8202 11.5018Z" stroke="black" stroke-width="3"/>
</svg>

<svg xmlns="http://www.w3.org/2000/svg" width="48" height="48" fill="none" viewBox="0 0 48 48">
  <path stroke="#000" stroke-width="3" d="M27.82 11.502l14.053 23.66c1.162 1.957 1.94 3.275 2.348 4.28.403.992.268 1.254.207 1.358-.072.12-.269.377-1.373.536-1.11.16-2.682.164-5.003.164H9.948c-2.32 0-3.893-.004-5.002-.164-1.105-.16-1.302-.416-1.374-.536-.061-.104-.196-.366.207-1.358.408-1.005 1.186-2.323 2.348-4.28l14.053-23.66c1.161-1.956 1.947-3.271 2.64-4.12.679-.83 1.005-.882 1.18-.882.175 0 .501.051 1.18.883.693.848 1.479 2.163 2.64 4.119z"/>
</svg>
